X: 207
T: 208. Als vierzig Tag nach Ostern
N: Derived from chor208.krn
C: Johann Sebastian Bach
%%abc-version 2.0
%%abcx-abcm2ps-target-version 5.9.1 (29 Sep 2008)
%%abc-creator hum2abc beta
%%abcx-conversion-date 2019/03/11 17:28:18
%%abc-edited-by Craig Stuart Sapp
%%humdrum-veritas 3230837337
%%humdrum-veritas-data 1766668094
%%
%%barnumbers 0
L: 1/4
M: 3/4
%%staves [1 2 3 4]
V: 1 clef=treble
V: 2 clef=treble
V: 3 clef=treble-8
V: 4 clef=bass
K: G
[V:1] EEE | 
[V:2] B,B,B, | 
[V:3] GGG | 
[V:4] E,G,E, | 
[V:1] B2B | 
[V:2] F2G- | 
[V:3] F^de | 
[V:4] ^D,B,,E, | 
[V:1] ABG/A/ | 
[V:2] GFE | 
[V:3] eBB | 
[V:4] ^C,^D,E, | 
[V:1] BAA | 
[V:2] FE/G/ F/E/ | 
[V:3] Bc/e/ ^d/e/ | 
[V:4] =D,=C,/B,,/C, | 
[V:1] !fermata!B2G | 
[V:2] !fermata!F2B,/^C/ | 
[V:3] !fermata!^d2e | 
[V:4] !fermata!B,,2E, | 
[V:1] FGA | 
[V:2] =D2E/F/ | 
[V:3] AB=c | 
[V:4] =D,/C,/B,,A,, | 
[V:1] BAG | 
[V:2] G3/F/- F/E/ | 
[V:3] d3/c/B | 
[V:4] G,,D,E, | 
[V:1] G2F | 
[V:2] E/D/CD | 
[V:3] c3/B/A | 
[V:4] C,A,,D, | 
[V:1] !fermata!G2A | 
[V:2] !fermata!D2F | 
[V:3] !fermata!B2d | 
[V:4] !fermata!G,,2D, | 
[V:1] B2B | 
[V:2] G2G | 
[V:3] d2e/d/ | 
[V:4] G,F,E,- | 
[V:1] A2A | 
[V:2] F/E/F^D | 
[V:3] cBB | 
[V:4] E,^D,B,, | 
[V:1] G2G | 
[V:2] E/^D/E2- | 
[V:3] B2B | 
[V:4] E,G,E, | 
[V:1] !fermata!F3 | 
[V:2] E!fermata!^D2 | 
[V:3] !fermata!B3 | 
[V:4] !fermata!B,,3 | 
[V:1] EF^D | 
[V:2] ECB, | 
[V:3] GAF | 
[V:4] C,A,,B,, | 
[V:1] !fermata!E2E | 
[V:2] !fermata!B,2B, | 
[V:3] !fermata!G2G- | 
[V:4] !fermata!E,2E, | 
[V:1] A2A | 
[V:2] EDC | 
[V:3] GFF | 
[V:4] ^C,D,/=C,/B,,/A,,/ | 
[V:1] B2B | 
[V:2] DEF- | 
[V:3] GB2 | 
[V:4] G,,G,/F,/E,/^D,/ | 
[V:1] G2G | 
[V:2] FE/^D/E- | 
[V:3] B2B | 
[V:4] E,E,,/F,,/G,,/A,,/ | 
[V:1] !fermata!F3 | 
[V:2] E!fermata!^D2 | 
[V:3] !fermata!B3 | 
[V:4] !fermata!B,,3 | 
[V:1] E/F/G/A/B | 
[V:2] B,EF | 
[V:3] GBB/A/ | 
[V:4] E,,E,^D, | 
[V:1] B2A | 
[V:2] E3/G/F/E/ | 
[V:3] G/F/E/^D/E | 
[V:4] E,/=D,/C,/B,,/C, | 
[V:1] !fermata!B3 |]  
[V:2] !fermata!^D3 |]  
[V:3] !fermata!F3 |]  
[V:4] !fermata!B,,3 |]  



